src/images/svg/be-square/instagram.svg

<svg width="32" height="33" viewBox="0 0 32 33" fill="none" xmlns="http://www.w3.org/2000/svg">
<path d="M26.0181 2.67212H5.98255C4.15142 2.67212 2.66699 4.15654 2.66699 5.98767V26.0232C2.66699 27.8544 4.15142 29.3388 5.98255 29.3388H26.0181C27.8492 29.3388 29.3337 27.8544 29.3337 26.0232V5.98767C29.3337 4.15654 27.8492 2.67212 26.0181 2.67212Z" fill="white"/>
<path d="M19.8823 7.33862C22.5209 7.33862 24.6663 9.48487 24.6663 12.1226V19.888C24.6663 22.5257 22.5209 24.672 19.8823 24.672H12.117C9.47849 24.672 7.33301 22.5265 7.33301 19.888V12.1226C7.33301 9.48487 9.47849 7.33862 12.117 7.33862H19.8823ZM19.8823 8.87628H12.117C10.3267 8.87628 8.87067 10.3323 8.87067 12.1219V19.8887C8.87067 21.6783 10.3267 23.1343 12.1162 23.1343H19.8831C21.6727 23.1343 23.1287 21.6783 23.1287 19.8887V12.1219C23.1287 10.3323 21.6719 8.87628 19.8823 8.87628ZM15.9997 11.4655C18.5034 11.4655 20.5395 13.5024 20.5395 16.0053C20.5395 18.509 18.5026 20.5451 15.9997 20.5451C13.496 20.5451 11.4599 18.5082 11.4599 16.0053C11.4599 13.5016 13.4967 11.4655 15.9997 11.4655ZM15.9997 13.0293C14.3588 13.0293 13.023 14.3636 13.023 16.0053C13.023 17.6462 14.3588 18.982 15.9997 18.982C17.6406 18.982 18.9764 17.6462 18.9764 16.0053C18.9764 14.3644 17.6406 13.0293 15.9997 13.0293ZM20.7452 10.2275C21.0179 10.2275 21.2844 10.3369 21.4755 10.5295C21.6681 10.7205 21.7775 10.9871 21.7775 11.259C21.7775 11.5302 21.6681 11.7968 21.4755 11.9893C21.2829 12.1804 21.0179 12.2913 20.7459 12.2913C20.4748 12.2913 20.2082 12.1804 20.0172 11.9893C19.8246 11.7968 19.7136 11.5302 19.7136 11.259C19.7136 10.9871 19.8246 10.7205 20.0172 10.5295C20.2082 10.3369 20.474 10.2275 20.7452 10.2275Z" fill="black"/>
</svg>

<svg xmlns="http://www.w3.org/2000/svg" width="32" height="33" fill="none"  xmlns:v="https://vecta.io/nano"><path d="M26.018 2.672H5.983c-1.831 0-3.316 1.484-3.316 3.316v20.036c0 1.831 1.484 3.316 3.316 3.316h20.036c1.831 0 3.316-1.484 3.316-3.316V5.988c0-1.831-1.485-3.316-3.316-3.316z" fill="#fff"/><path d="M19.882 7.339a4.79 4.79 0 0 1 4.784 4.784v7.765a4.79 4.79 0 0 1-4.784 4.784h-7.765a4.79 4.79 0 0 1-4.784-4.784v-7.765a4.79 4.79 0 0 1 4.784-4.784h7.765zm0 1.538h-7.765a3.25 3.25 0 0 0-3.246 3.246v7.767a3.25 3.25 0 0 0 3.246 3.246h7.767a3.25 3.25 0 0 0 3.246-3.246v-7.767a3.25 3.25 0 0 0-3.246-3.246zM16 11.466c2.504 0 4.54 2.037 4.54 4.54s-2.037 4.54-4.54 4.54-4.54-2.037-4.54-4.54 2.037-4.54 4.54-4.54zm0 1.564a2.98 2.98 0 0 0-2.977 2.976A2.98 2.98 0 0 0 16 18.982a2.98 2.98 0 0 0 2.977-2.977A2.98 2.98 0 0 0 16 13.029zm4.746-2.802c.273 0 .539.109.73.302s.302.458.302.729a1.04 1.04 0 0 1-.302.73c-.193.191-.458.302-.73.302a1.04 1.04 0 0 1-1.032-1.032c0-.272.111-.539.304-.729a1.03 1.03 0 0 1 .728-.302z" fill="#000"/></svg>
